icons/circle/48/qemu-launcher.svg

<svg viewBox="0 0 48 48" xmlns="http://www.w3.org/2000/svg">
 <defs>
  <linearGradient id="linearGradient3764" x1="1" x2="47" gradientTransform="matrix(0 -1 1 0 -1.5e-6 48)" gradientUnits="userSpaceOnUse">
   <stop style="stop-color:#333" offset="0"/>
   <stop style="stop-color:#3d3d3d" offset="1"/>
  </linearGradient>
 </defs>
 <path d="m36.31 5c5.859 4.062 9.688 10.831 9.688 18.5 0 12.426-10.07 22.5-22.5 22.5-7.669 0-14.438-3.828-18.5-9.688 1.037 1.822 2.306 3.499 3.781 4.969 4.085 3.712 9.514 5.969 15.469 5.969 12.703 0 23-10.298 23-23 0-5.954-2.256-11.384-5.969-15.469-1.469-1.475-3.147-2.744-4.969-3.781zm4.969 3.781c3.854 4.113 6.219 9.637 6.219 15.719 0 12.703-10.297 23-23 23-6.081 0-11.606-2.364-15.719-6.219 4.16 4.144 9.883 6.719 16.219 6.719 12.703 0 23-10.298 23-23 0-6.335-2.575-12.06-6.719-16.219z" style="opacity:.05"/>
 <path d="m41.28 8.781c3.712 4.085 5.969 9.514 5.969 15.469 0 12.703-10.297 23-23 23-5.954 0-11.384-2.256-15.469-5.969 4.113 3.854 9.637 6.219 15.719 6.219 12.703 0 23-10.298 23-23 0-6.081-2.364-11.606-6.219-15.719z" style="opacity:.1"/>
 <path d="m31.25 2.375c8.615 3.154 14.75 11.417 14.75 21.13 0 12.426-10.07 22.5-22.5 22.5-9.708 0-17.971-6.135-21.12-14.75a23 23 0 0 0 44.875-7 23 23 0 0 0-16-21.875z" style="opacity:.2"/>
 <path d="m24 1c12.703 0 23 10.297 23 23s-10.297 23-23 23-23-10.297-23-23 10.297-23 23-23z" style="fill:url(#linearGradient3764)"/>
 <path d="m40.03 7.531c3.712 4.084 5.969 9.514 5.969 15.469 0 12.703-10.297 23-23 23-5.954 0-11.384-2.256-15.469-5.969 4.178 4.291 10.01 6.969 16.469 6.969 12.703 0 23-10.298 23-23 0-6.462-2.677-12.291-6.969-16.469z" style="opacity:.1"/>
 <path d="m25 10a15 15 0 0 0-15 15 15 15 0 0 0 10.268 14.221c-1.388-3.85-2.452-9.798-3.096-12.654-0.322-1.267-0.131-2.53 0.086-3.795 0.44-1.319 0.585-2.695 1.188-3.961 0.918-0.795 0.941-2.231 1.832-2.922 0.132 0.079 0.222 0.115 0.283 0.137h0.094c0.128-0.13-1.248-1.528 0.027-0.975 0.05-0.735 1.202-0.174 1.219-0.816v-2e-3c0.56 0.464 0.455 0.27 1.207 0.184 0.858-0.544 1.257 1.29 1.613 0.268 1.051 0.133 2.168 0.465 3.162 0.799 1 0.214 1.946 0.775 2.615 1.545l-0.02 8e-3 0.49 0.635c0.064 0.11 0.117 0.225 0.17 0.34 0.199 1.649 2.082 1.626 3.342 2.223 1.078 0.372 2.377 0.939 2.51 2.205-0.272-0.058-1.324-1.26-2.152-1.377-0.502-0.031-1.035-0.167-1.537-0.35l-2.908-0.523c-0.145-0.017-0.289-0.041-0.434-0.072v0.018l-4.115-0.496c0.067 0.045 0.142 0.107 0.209 0.166l4.219 0.799v-8e-3l0.291 0.072 1.18 0.258c0.234 0.021 0.472 0.058 0.662 0.092 1.203 0.322 2.625 0.265 3.613 1.084-0.258 0.481-1.7 0.209-2.416 0.146-0.088-0.017-0.184-0.03-0.273-0.045-0.015-2e-3 -0.032-8e-3 -0.047 0-0.978-0.155-1.984-0.162-2.926 0.121-2e-3 0-8e-3 0 0 0-0.325 0.098-0.641 0.238-0.943 0.412-1.361 0.771-3.041 1.051-4.17 2.16-1.106 1.159-1.039 2.753-0.85 4.236h0.047v0.377c0.018 0.13 0.039 0.258 0.057 0.385 0.577 2.998 2.108 5.749 2.586 8.775 0.029 0.359 0.077 0.768 0.121 1.166a15 15 0 0 0 12.796-14.836 15 15 0 0 0-15-15zm2.316 7.23c-0.454 0.012-0.806 0.177-0.906 0.459-0.16 0.451 0.384 1.034 1.219 1.314 0.834 0.281 1.643 0.147 1.803-0.305 0.16-0.451-0.384-1.042-1.219-1.322-0.313-0.105-0.624-0.153-0.896-0.146z" style="opacity:.1"/>
 <path d="m24 9a15 15 0 0 0-15 15 15 15 0 0 0 10.268 14.22c-1.388-3.85-2.453-9.797-3.098-12.654-0.321-1.266-0.13-2.526 0.088-3.795 0.44-1.318 0.585-2.691 1.187-3.96 0.919-0.791 0.941-2.231 1.832-2.922 0.133 0.079 0.222 0.111 0.284 0.141l0.093 0.01h0.01c0.128-0.134-1.248-1.532 0.027-0.98 0.05-0.734 1.202-0.173 1.219-0.816v-2e-3c0.56 0.464 0.455 0.27 1.21 0.184 0.855-0.544 1.254 1.29 1.61 0.267 1.052 0.133 2.169 0.465 3.163 0.799 1.001 0.214 1.945 0.776 2.615 1.548h-0.02l0.491 0.64c0.061 0.11 0.121 0.225 0.171 0.34 0.198 1.649 2.08 1.626 3.34 2.222 1.078 0.372 2.377 0.938 2.51 2.205-0.272-0.058-1.324-1.257-2.152-1.377-0.498-0.03-1.036-0.167-1.538-0.349l-2.908-0.521v-0.01c-0.142-0.02-0.292-0.04-0.433-0.07v0.01l-4.115-0.493c0.067 0.045 0.141 0.106 0.206 0.166l4.22 0.799v-8e-3l0.292 0.072 1.18 0.258c0.234 0.021 0.468 0.058 0.662 0.096 1.203 0.318 2.626 0.26 3.616 1.08-0.261 0.481-1.7 0.208-2.419 0.146-0.088-0.016-0.184-0.026-0.271-0.046-0.02 0-0.03-0.01-0.05-0.01-0.98-0.15-1.98-0.16-2.925 0.123-2e-3 0-7e-3 -1e-3 -0.01 0-0.325 0.098-0.64 0.238-0.943 0.412-1.362 0.77-3.04 1.051-4.172 2.16-1.1 1.155-1.04 2.753-0.847 4.235h0.046v0.378c0.018 0.13 0.039 0.258 0.057 0.385 0.574 2.998 2.108 5.749 2.584 8.775 0.03 0.362 0.08 0.769 0.12 1.166a15 15 0 0 0 12.8-14.824 15 15 0 0 0-15-15zm2.316 7.23c-0.454 0.012-0.806 0.177-0.906 0.459-0.16 0.451 0.385 1.034 1.219 1.311 0.834 0.285 1.641 0.15 1.803-0.301 0.16-0.451-0.382-1.041-1.222-1.322-0.31-0.105-0.621-0.153-0.894-0.147z" style="fill:#ff8b3c"/>
</svg>

<svg xmlns="http://www.w3.org/2000/svg" viewBox="0 0 48 48">
 <defs>
  <linearGradient id="linearGradient3764" x1="1" x2="47" gradientUnits="userSpaceOnUse" gradientTransform="matrix(0,-1,1,0,-1.5e-6,47.999998)">
   <stop style="stop-color:#333;stop-opacity:1"/>
   <stop offset="1" style="stop-color:#3d3d3d;stop-opacity:1"/>
  </linearGradient>
 </defs>
 <g>
  <path d="m 36.31 5 c 5.859 4.062 9.688 10.831 9.688 18.5 c 0 12.426 -10.07 22.5 -22.5 22.5 c -7.669 0 -14.438 -3.828 -18.5 -9.688 c 1.037 1.822 2.306 3.499 3.781 4.969 c 4.085 3.712 9.514 5.969 15.469 5.969 c 12.703 0 23 -10.298 23 -23 c 0 -5.954 -2.256 -11.384 -5.969 -15.469 c -1.469 -1.475 -3.147 -2.744 -4.969 -3.781 z m 4.969 3.781 c 3.854 4.113 6.219 9.637 6.219 15.719 c 0 12.703 -10.297 23 -23 23 c -6.081 0 -11.606 -2.364 -15.719 -6.219 c 4.16 4.144 9.883 6.719 16.219 6.719 c 12.703 0 23 -10.298 23 -23 c 0 -6.335 -2.575 -12.06 -6.719 -16.219 z" style="opacity:0.05"/>
  <path d="m 41.28 8.781 c 3.712 4.085 5.969 9.514 5.969 15.469 c 0 12.703 -10.297 23 -23 23 c -5.954 0 -11.384 -2.256 -15.469 -5.969 c 4.113 3.854 9.637 6.219 15.719 6.219 c 12.703 0 23 -10.298 23 -23 c 0 -6.081 -2.364 -11.606 -6.219 -15.719 z" style="opacity:0.1"/>
  <path d="m 31.25 2.375 c 8.615 3.154 14.75 11.417 14.75 21.13 c 0 12.426 -10.07 22.5 -22.5 22.5 c -9.708 0 -17.971 -6.135 -21.12 -14.75 a 23 23 0 0 0 44.875 -7 a 23 23 0 0 0 -16 -21.875 z" style="opacity:0.2"/>
 </g>
 <g>
  <path d="m 24 1 c 12.703 0 23 10.297 23 23 c 0 12.703 -10.297 23 -23 23 -12.703 0 -23 -10.297 -23 -23 0 -12.703 10.297 -23 23 -23 z" style="fill:url(#linearGradient3764);fill-opacity:1"/>
 </g>
 <g>
  <path d="m 40.03 7.531 c 3.712 4.084 5.969 9.514 5.969 15.469 0 12.703 -10.297 23 -23 23 c -5.954 0 -11.384 -2.256 -15.469 -5.969 4.178 4.291 10.01 6.969 16.469 6.969 c 12.703 0 23 -10.298 23 -23 0 -6.462 -2.677 -12.291 -6.969 -16.469 z" style="opacity:0.1"/>
 </g>
 <path d="m 25 10 a 15 15 0 0 0 -15 15 15 15 0 0 0 10.268 14.221 c -1.388 -3.85 -2.452 -9.798 -3.096 -12.654 -0.322 -1.267 -0.131 -2.53 0.086 -3.795 0.44 -1.319 0.585 -2.695 1.188 -3.961 0.918 -0.795 0.941 -2.231 1.832 -2.922 0.132 0.079 0.222 0.115 0.283 0.137 l 0.094 0 0 0 c 0.128 -0.13 -1.248 -1.528 0.027 -0.975 0.05 -0.735 1.202 -0.174 1.219 -0.816 l 0 -0.002 c 0.56 0.464 0.455 0.27 1.207 0.184 0.858 -0.544 1.257 1.29 1.613 0.268 1.051 0.133 2.168 0.465 3.162 0.799 1 0.214 1.946 0.775 2.615 1.545 l -0.02 0.008 0.49 0.635 c 0.064 0.11 0.117 0.225 0.17 0.34 0.199 1.649 2.082 1.626 3.342 2.223 1.078 0.372 2.377 0.939 2.51 2.205 -0.272 -0.058 -1.324 -1.26 -2.152 -1.377 -0.502 -0.031 -1.035 -0.167 -1.537 -0.35 l -2.908 -0.523 0 0 c -0.145 -0.017 -0.289 -0.041 -0.434 -0.072 l 0 0.018 -4.115 -0.496 c 0.067 0.045 0.142 0.107 0.209 0.166 l 4.219 0.799 0 -0.008 0.291 0.072 1.18 0.258 c 0.234 0.021 0.472 0.058 0.662 0.092 1.203 0.322 2.625 0.265 3.613 1.084 -0.258 0.481 -1.7 0.209 -2.416 0.146 -0.088 -0.017 -0.184 -0.03 -0.273 -0.045 -0.015 -0.002 -0.032 -0.008 -0.047 0 -0.978 -0.155 -1.984 -0.162 -2.926 0.121 -0.002 0 -0.008 0 0 0 -0.325 0.098 -0.641 0.238 -0.943 0.412 -1.361 0.771 -3.041 1.051 -4.17 2.16 -1.106 1.159 -1.039 2.753 -0.85 4.236 l 0.047 0 0 0.377 c 0.018 0.13 0.039 0.258 0.057 0.385 0.577 2.998 2.108 5.749 2.586 8.775 0.029 0.359 0.077 0.768 0.121 1.166 A 15 15 0 0 0 40 25 a 15 15 0 0 0 -15 -15 z m 2.316 7.23 c -0.454 0.012 -0.806 0.177 -0.906 0.459 -0.16 0.451 0.384 1.034 1.219 1.314 0.834 0.281 1.643 0.147 1.803 -0.305 0.16 -0.451 -0.384 -1.042 -1.219 -1.322 -0.313 -0.105 -0.624 -0.153 -0.896 -0.146 z" style="fill:#000;opacity:0.1;fill-opacity:1;stroke:none;fill-rule:nonzero"/>
 <path d="M 24 9 A 15 15 0 0 0 9 24 A 15 15 0 0 0 19.268 38.22 C 17.88 34.37 16.815 28.423 16.17 25.566 C 15.849 24.3 16.04 23.04 16.258 21.771 C 16.698 20.453 16.843 19.08 17.445 17.811 C 18.364 17.02 18.386 15.58 19.277 14.889 C 19.41 14.968 19.499 15 19.561 15.03 L 19.654 15.04 L 19.664 15.04 C 19.792 14.906 18.416 13.508 19.691 14.06 C 19.741 13.326 20.893 13.887 20.91 13.244 L 20.91 13.242 C 21.47 13.706 21.365 13.512 22.12 13.426 C 22.975 12.882 23.374 14.716 23.73 13.693 C 24.782 13.826 25.899 14.158 26.893 14.492 C 27.894 14.706 28.838 15.268 29.508 16.04 L 29.488 16.04 L 29.979 16.68 C 30.04 16.79 30.1 16.905 30.15 17.02 C 30.348 18.669 32.23 18.646 33.49 19.242 C 34.568 19.614 35.867 20.18 36 21.447 C 35.728 21.389 34.676 20.19 33.848 20.07 C 33.35 20.04 32.812 19.903 32.31 19.721 L 29.402 19.2 L 29.402 19.19 C 29.26 19.17 29.11 19.15 28.969 19.12 L 28.969 19.13 L 24.854 18.637 C 24.921 18.682 24.995 18.743 25.06 18.803 L 29.28 19.602 L 29.28 19.594 L 29.572 19.666 L 30.752 19.924 C 30.986 19.945 31.22 19.982 31.414 20.02 C 32.617 20.338 34.04 20.28 35.03 21.1 C 34.769 21.581 33.33 21.308 32.611 21.246 C 32.523 21.23 32.427 21.22 32.34 21.2 C 32.32 21.2 32.31 21.19 32.29 21.19 C 31.31 21.04 30.31 21.03 29.365 21.313 C 29.363 21.313 29.358 21.312 29.355 21.313 C 29.03 21.411 28.715 21.551 28.412 21.725 C 27.05 22.495 25.372 22.776 24.24 23.885 C 23.14 25.04 23.2 26.638 23.393 28.12 L 23.439 28.12 L 23.439 28.498 C 23.457 28.628 23.478 28.756 23.496 28.883 C 24.07 31.881 25.604 34.632 26.08 37.658 C 26.11 38.02 26.16 38.427 26.2 38.824 A 15 15 0 0 0 39 24 A 15 15 0 0 0 24 9 z M 26.316 16.23 C 25.862 16.242 25.51 16.407 25.41 16.689 C 25.25 17.14 25.795 17.723 26.629 18 C 27.463 18.285 28.27 18.15 28.432 17.699 C 28.592 17.248 28.05 16.658 27.21 16.377 C 26.9 16.272 26.589 16.224 26.316 16.23 z" style="fill:#ff8b3c;opacity:1;fill-opacity:1;stroke:none;fill-rule:nonzero"/>
</svg>
